!!!OTL: MUENSTER ICH MUSS DICH VERLASSEN
!!!ARE: Europa, Mitteleuropa, Deutschland, Westfalen
!!!SCT: E1600C
!!!YEM: Copyright 1995, estate of Helmut Schaffrath.
**kern
*ICvox
*Ivox
*M3/4
*k[f#c#]
*D:
{8d
8f#
=1
4a
4dd
8a
8g
=2
8g
8f#
4f#}
{8e
8f#
=3
4g
4g
8.f#
16e
=4
4e
4r}
{8d
8f#
=5
4a
4dd
8a
8g
=6
8g
8f#
4f#}
{8e
8f#
=7
4g
4b
8a
8g
=8
8g
8f#
4f#}
{8d
8e
=9
4f#
4a
8g
8e
=10
4d
4r}
==
!!!AGN: Staende -, Handwerker -, Gesellen - Lied; Abschied, Wanderschaft
!!!ONB: ESAC (Essen Associative Code) Database: ERK3
!!!AMT: simple triple
!!!AIN: vox
!!!EED: Helmut Schaffrath
!!!EEV: 1.0
*-
